X:7
T:
T:Rondo
M:2/4
L:1/16
K:C
%1
"Allegro"G3F | E2G2e2d2 | .c2.E2 G4 | A2G2.D2.B2 | d2c2G3F | E2G2e2d2 | c2E2 G4 | D2F2G2B2 |
w:l1p239
%2
c4 z2 e2 | d2c2A2^F2 | G2B2 d4 | e2d2c2A2 | e2d2B2G2| d2c2A2^F2|G2B2 d4 | {e/d/}^c2d2=c2^F2 | G4 z4 | z16 |
w:l2p239
%3
z4 GAGF | EGce dcBd | ceag fedc | BGBd cGce | dgdB GAGF | EGce dcBd |
w:l3p239
%4
ceag fedc | defd cBAB | c4 z2 e2 | fagf egfe | dfed cedc  |BGBD cGce |
w:l4p239
%5
d2GA Bcde | fagf egfe | dfed cedc | Adfd cBAB | cGGG eGGG | dG^FG AGBG |
w:l5p239
%6
cGGG AGGG | ^FG=FG EGDG | CGGG eGGG | fG^FG AGBG | cGGG AGGG | ^FG=FG EGDG |
w:l6p239
%7
C2EG cEGc | eEGc eGce | gecG ecGE | cGEC cGEC | G,2GG GGGG |
w:l7p239
%8
GGGG GGGG | c2GG GGGG | GGGG GGGG | c4 z2 d2 | e2d2e2d2 | e4 z4 | g4 z4 | C8 |]


W:
W:
W:  From Musica Viva - http://www.musicaviva.com
W:  the Internet center for free sheet music downloads.

